images/svg/045-holding-hands.svg

<svg id="e161s0e9ge2p1" xmlns="http://www.w3.org/2000/svg" xmlns:xlink="http://www.w3.org/1999/xlink" viewBox="0 0 511.991000 511.991000" shape-rendering="geometricPrecision" text-rendering="geometricPrecision"><style><![CDATA[#e161s0e9ge2p4_ts {animation: e161s0e9ge2p4_ts__ts 3000ms linear 1 normal forwards}@keyframes e161s0e9ge2p4_ts__ts { 0% {transform: translate(71.413005px,63.966750px) scale(0.500000,0.500000)} 16.666667% {transform: translate(71.413005px,63.966750px) scale(1,1)} 33.333333% {transform: translate(71.413005px,63.966750px) scale(0.500000,0.500000)} 50% {transform: translate(71.413005px,63.966750px) scale(1,1)} 66.666667% {transform: translate(71.413005px,63.966750px) scale(0.500000,0.500000)} 83.333333% {transform: translate(71.413005px,63.966750px) scale(1,1)} 100% {transform: translate(71.413005px,63.966750px) scale(0.500000,0.500000)} }#e161s0e9ge2p9_ts {animation: e161s0e9ge2p9_ts__ts 3000ms linear 1 normal forwards}@keyframes e161s0e9ge2p9_ts__ts { 0% {transform: translate(425.487991px,434.750366px) scale(1,1)} 16.666667% {transform: translate(425.487991px,434.750366px) scale(0.500000,0.500000)} 33.333333% {transform: translate(425.487991px,434.750366px) scale(1,1)} 50% {transform: translate(425.487991px,434.750366px) scale(0.500000,0.500000)} 66.666667% {transform: translate(425.487991px,434.750366px) scale(1,1)} 83.333333% {transform: translate(425.487991px,434.750366px) scale(0.500000,0.500000)} 100% {transform: translate(425.487991px,434.750366px) scale(1,1)} }#e161s0e9ge2p12_ts {animation: e161s0e9ge2p12_ts__ts 3000ms linear 1 normal forwards}@keyframes e161s0e9ge2p12_ts__ts { 0% {transform: translate(71.402382px,63.966000px) scale(0.500000,0.500000)} 16.666667% {transform: translate(71.402382px,63.966000px) scale(1,1)} 33.333333% {transform: translate(71.402382px,63.966000px) scale(0.500000,0.500000)} 50% {transform: translate(71.402382px,63.966000px) scale(1,1)} 66.666667% {transform: translate(71.402382px,63.966000px) scale(0.500000,0.500000)} 83.333333% {transform: translate(71.402382px,63.966000px) scale(1,1)} 100% {transform: translate(71.402382px,63.966000px) scale(0.500000,0.500000)} }#e161s0e9ge2p13_ts {animation: e161s0e9ge2p13_ts__ts 3000ms linear 1 normal forwards}@keyframes e161s0e9ge2p13_ts__ts { 0% {transform: translate(425.487946px,434.757446px) scale(1,1)} 16.666667% {transform: translate(425.487946px,434.757446px) scale(0.500000,0.500000)} 33.333333% {transform: translate(425.487946px,434.757446px) scale(1,1)} 50% {transform: translate(425.487946px,434.757446px) scale(0.500000,0.500000)} 66.666667% {transform: translate(425.487946px,434.757446px) scale(1,1)} 83.333333% {transform: translate(425.487946px,434.757446px) scale(0.500000,0.500000)} 100% {transform: translate(425.487946px,434.757446px) scale(1,1)} }]]></style><g id="e161s0e9ge2p2"><g id="e161s0e9ge2p3"><g id="e161s0e9ge2p4_ts" transform="translate(71.413005,63.966750) scale(0.500000,0.500000)"><path id="e161s0e9ge2p4" d="M63.986000,114.856000L20.540000,71.410000C6.492000,57.362000,6.492000,34.585000,20.540000,20.537000C34.588000,6.489000,57.365000,6.489000,71.413000,20.537000C85.461000,6.489000,108.238000,6.489000,122.286000,20.537000C136.334000,34.585000,136.334000,57.362000,122.286000,71.410000L78.840000,114.856000C74.738000,118.958000,68.088000,118.958000,63.986000,114.856000Z" transform="translate(-71.413005,-63.966750)" fill="rgb(255,122,122)" stroke="none" stroke-width="1"/></g><g id="e161s0e9ge2p5"><path id="e161s0e9ge2p6" d="M377.477000,10.012000L352.203000,35.286000L311.219000,35.228000C285.066000,35.191000,259.496000,42.951000,237.774000,57.517000L177.433000,97.980000C164.669000,106.539000,161.424000,123.913000,170.239000,136.502000C178.528000,148.339000,194.577000,151.718000,206.935000,144.227000L233.017000,128.416000C237.015000,125.992000,241.170000,131.289000,237.864000,134.595000L151.531000,220.928000C141.048000,231.411000,141.048000,248.408000,151.531000,258.891000C162.014000,269.374000,179.011000,269.374000,189.494000,258.891000L249.807000,198.578000L230.937000,217.314000L170.624000,277.627000C160.141000,288.110000,160.141000,305.107000,170.624000,315.590000C181.107000,326.073000,198.104000,326.073000,208.587000,315.590000L268.900000,255.277000L287.636000,236.407000L227.323000,296.720000C216.840000,307.203000,216.840000,324.200000,227.323000,334.683000C237.806000,345.166000,254.803000,345.166000,265.286000,334.683000L325.599000,274.370000L325.532000,274.303000L301.147000,298.688000C290.664000,309.171000,290.664000,326.168000,301.147000,336.651000C311.630000,347.134000,328.627000,347.134000,339.110000,336.651000L382.265000,293.496000L345.199000,330.562000L417.252000,258.509000C441.966000,233.795000,455.828000,200.262000,455.778000,165.311000L455.740000,138.822000L481.764000,112.798000Z" fill="rgb(244,198,175)" stroke="none" stroke-width="1"/></g><g id="e161s0e9ge2p7"><path id="e161s0e9ge2p8" d="M87.841000,501.991000L130.094000,459.738000L160.895000,459.782000C180.550000,459.810000,199.768000,453.978000,216.093000,443.031000L261.442000,412.621000C271.035000,406.188000,273.473000,393.131000,266.848000,383.669000C260.619000,374.773000,248.556000,372.233000,239.269000,377.864000L219.667000,389.747000C216.662000,391.568000,213.539000,387.587000,216.024000,385.103000L280.908000,320.219000C288.787000,312.340000,288.787000,299.566000,280.908000,291.688000C273.029000,283.809000,260.255000,283.809000,252.377000,291.688000L207.048000,337.017000L221.230000,322.936000L266.559000,277.607000C274.438000,269.728000,274.438000,256.954000,266.559000,249.076000C258.680000,241.197000,245.906000,241.197000,238.028000,249.076000L192.700000,294.403000L178.619000,308.585000L223.948000,263.256000C231.827000,255.377000,231.827000,242.603000,223.948000,234.725000C216.069000,226.846000,203.295000,226.846000,195.417000,234.725000L150.088000,280.054000L150.138000,280.104000L162.005000,268.237000C169.884000,260.358000,169.884000,247.584000,162.005000,239.706000C154.126000,231.827000,141.352000,231.827000,133.474000,239.706000L107.500000,265.679000L128.898000,244.281000L81.205000,291.974000C62.631000,310.548000,52.213000,335.750000,52.251000,362.017000L52.279000,381.925000L10.026000,424.178000Z" fill="rgb(255,208,198)" stroke="none" stroke-width="1"/></g><g id="e161s0e9ge2p9_ts" transform="translate(425.487991,434.750366) scale(1,1)"><path id="e161s0e9ge2p9" d="M416.233000,498.167000L362.092000,444.026000C344.586000,426.520000,344.586000,398.137000,362.092000,380.630000C379.598000,363.124000,407.981000,363.124000,425.488000,380.630000C442.994000,363.124000,471.377000,363.124000,488.884000,380.630000C506.390000,398.136000,506.390000,426.519000,488.884000,444.026000L434.743000,498.167000C429.631000,503.278000,421.344000,503.278000,416.233000,498.167000Z" transform="translate(-425.487991,-434.750366)" fill="rgb(255,122,122)" stroke="none" stroke-width="1"/></g></g><g id="e161s0e9ge2p10"><g id="e161s0e9ge2p11"><g id="e161s0e9ge2p12_ts" transform="translate(71.402382,63.966000) scale(0.500000,0.500000)"><path id="e161s0e9ge2p12" d="M56.916000,121.927000C60.788000,125.800000,65.937000,127.932000,71.414000,127.932000C76.891000,127.932000,82.039000,125.799000,85.911000,121.927000L129.358000,78.481000C147.283000,60.556000,147.283000,31.390000,129.358000,13.465000C120.674000,4.782000,109.129000,0,96.850000,0C87.660000,0,78.880000,2.679000,71.405000,7.667000C53.557000,-4.189000,29.190000,-2.257000,13.468000,13.465000C4.785000,22.148000,0.003000,33.693000,0.003000,45.973000C0.003000,58.253000,4.785000,69.797000,13.468000,78.481000ZM27.611000,27.607000C32.674000,22.544000,39.325000,20.012000,45.977000,20.012000C52.628000,20.012000,59.279000,22.544000,64.342000,27.607000C66.217000,29.482000,68.761000,30.536000,71.413000,30.536000C74.065000,30.536000,76.609000,29.482000,78.484000,27.607000C83.390000,22.702000,89.912000,20,96.850000,20C103.788000,20,110.310000,22.702000,115.215000,27.607000C120.121000,32.512000,122.822000,39.035000,122.822000,45.973000C122.822000,52.911000,120.120000,59.433000,115.215000,64.338000L71.768000,107.785000C71.727000,107.826000,71.621000,107.932000,71.413000,107.932000C71.205000,107.932000,71.098000,107.825000,71.058000,107.785000L27.611000,64.338000C17.484000,54.212000,17.484000,37.734000,27.611000,27.607000Z" transform="translate(-71.402382,-63.966000)" fill="rgb(0,0,0)" stroke="none" stroke-width="1"/></g><g id="e161s0e9ge2p13_ts" transform="translate(425.487946,434.757446) scale(1,1)"><path id="e161s0e9ge2p13" d="M495.955000,373.559000C476.799000,354.404000,446.881000,352.413000,425.488000,367.586000C404.095000,352.413000,374.177000,354.403000,355.021000,373.559000C333.644000,394.936000,333.644000,429.720000,355.021000,451.097000L409.162000,505.238000C413.663000,509.739000,419.576000,511.989000,425.488000,511.989000C431.400000,511.989000,437.313000,509.739000,441.814000,505.238000L495.955000,451.097000C517.332000,429.719000,517.332000,394.936000,495.955000,373.559000ZM481.812000,436.954000L427.671000,491.095000C426.467000,492.300000,424.508000,492.300000,423.304000,491.095000L369.163000,436.954000C355.583000,423.375000,355.583000,401.280000,369.163000,387.701000C375.741000,381.123000,384.487000,377.500000,393.789000,377.500000C403.091000,377.500000,411.837000,381.123000,418.415000,387.701000C422.320000,391.606000,428.652000,391.606000,432.558000,387.701000C446.138000,374.121000,468.233000,374.122000,481.811000,387.701000C495.392000,401.280000,495.392000,423.375000,481.812000,436.954000Z" transform="translate(-425.487946,-434.757446)" fill="rgb(0,0,0)" stroke="none" stroke-width="1"/></g><path id="e161s0e9ge2p14" d="M448.958000,208.480000C449.807000,208.703000,450.659000,208.809000,451.498000,208.809000C455.935000,208.809000,459.989000,205.833000,461.165000,201.339000C464.243000,189.583000,465.795000,177.456000,465.778000,165.296000L465.746000,142.958000L488.835000,119.868000C492.740000,115.963000,492.740000,109.631000,488.835000,105.726000C484.930000,101.821000,478.598000,101.821000,474.693000,105.726000L448.669000,131.750000C446.791000,133.628000,445.736000,136.178000,445.740000,138.835000L445.778000,165.323000C445.793000,175.765000,444.460000,186.178000,441.818000,196.272000C440.418000,201.617000,443.616000,207.082000,448.958000,208.480000Z" fill="rgb(0,0,0)" stroke="none" stroke-width="1"/><path id="e161s0e9ge2p15" d="M409.705000,280.198000C413.610000,276.293000,413.610000,269.961000,409.705000,266.055000C405.800000,262.149000,399.468000,262.150000,395.562000,266.055000L331.644000,329.974000C325.076000,336.541000,314.391000,336.542000,307.823000,329.974000C304.642000,326.793000,302.889000,322.563000,302.889000,318.064000C302.889000,314.170000,304.201000,310.479000,306.617000,307.493000L332.671000,281.440000C334.546000,279.565000,335.567000,276.987000,335.567000,274.336000C335.567000,271.684000,334.480000,269.107000,332.605000,267.231000C328.700000,263.326000,322.368000,263.326000,318.462000,267.231000L293.682000,292.012000C293.622000,292.072000,293.569000,292.137000,293.509000,292.198000C292.090000,289.435000,290.241000,286.876000,287.981000,284.616000C285.187000,281.822000,281.976000,279.691000,278.547000,278.224000C282.312000,271.578000,283.339000,263.799000,281.663000,256.523000L294.709000,243.478000C298.614000,239.573000,298.615000,233.241000,294.709000,229.336000C290.803000,225.431000,284.472000,225.431000,280.567000,229.336000L270.555000,239.348000C260.891000,231.985000,247.776000,231.216000,237.412000,237.089000C236.286000,234.458000,234.765000,231.957000,232.858000,229.672000L256.881000,205.649000C260.786000,201.744000,260.786000,195.412000,256.881000,191.507000C252.976000,187.602000,246.644000,187.602000,242.739000,191.507000L214.949000,219.298000C205.577000,217.650000,195.572000,220.431000,188.348000,227.655000L174.994000,241.010000C173.556000,237.979000,171.585000,235.140000,169.080000,232.635000C166.456000,230.012000,163.432000,227.939000,160.149000,226.457000L244.940000,141.666000C250.008000,136.597000,250.476000,128.825000,246.052000,123.185000C241.627000,117.544000,233.967000,116.148000,227.838000,119.865000L201.756000,135.677000C193.929000,140.421000,183.686000,138.265000,178.436000,130.768000C175.727000,126.899000,174.712000,122.210000,175.580000,117.567000C176.447000,112.923000,179.085000,108.918000,183.008000,106.287000L243.348000,65.825000C263.443000,52.350000,286.844000,45.231000,311.035000,45.231000L311.210000,45.231000L352.194000,45.289000L352.208000,45.289000C354.860000,45.289000,357.404000,44.236000,359.279000,42.360000L384.552000,17.087000C388.457000,13.182000,388.457000,6.850000,384.552000,2.944000C380.647000,-0.962000,374.314000,-0.961000,370.410000,2.944000L348.067000,25.280000L311.234000,25.228000C311.165000,25.228000,311.099000,25.228000,311.030000,25.228000C282.860000,25.228000,255.606000,33.520000,232.205000,49.211000L171.865000,89.673000C163.441000,95.322000,157.777000,103.923000,155.915000,113.893000C154.053000,123.863000,156.231000,133.929000,162.049000,142.237000C170.968000,154.976000,186.607000,160.534000,201.067000,157.249000L144.461000,213.855000C140.969000,217.347000,138.259000,221.475000,136.417000,225.988000C132.714000,227.486000,129.313000,229.724000,126.403000,232.633000L74.134000,284.901000C53.831000,305.204000,42.210000,333.317000,42.251000,362.030000L42.273000,377.787000L2.957000,417.106000C-0.949000,421.011000,-0.949000,427.343000,2.957000,431.249000C6.861000,435.153000,13.194000,435.153000,17.099000,431.249000L59.352000,388.996000C61.230000,387.118000,62.285000,384.568000,62.281000,381.911000L62.253000,362.003000C62.219000,338.565000,71.705000,315.618000,88.278000,299.045000L140.547000,246.776000C142.468000,244.854000,145.024000,243.796000,147.741000,243.796000C150.458000,243.796000,153.014000,244.855000,154.935000,246.776000C158.613000,250.454000,158.881000,256.270000,155.740000,260.260000L143.017000,272.983000C139.112000,276.888000,139.163000,283.270000,143.067000,287.175000C146.973000,291.080000,153.305000,291.080000,157.209000,287.175000L202.488000,241.796000C206.454000,237.830000,212.909000,237.829000,216.877000,241.796000C220.555000,245.475000,220.823000,251.292000,217.680000,255.282000L171.523000,301.539000C167.637000,305.453000,167.653000,311.775000,171.561000,315.668000C175.469000,319.562000,181.790000,319.557000,185.690000,315.656000L245.100000,256.146000C249.066000,252.179000,255.521000,252.179000,259.489000,256.146000C263.456000,260.113000,263.456000,266.568000,259.489000,270.535000L199.979000,329.945000C196.079000,333.845000,196.073000,340.168000,199.967000,344.075000C203.861000,347.982000,210.182000,348,214.096000,344.113000L260.353000,297.956000C264.342000,294.813000,270.160000,295.080000,273.838000,298.759000C275.760000,300.680000,276.818000,303.236000,276.818000,305.953000C276.818000,308.670000,275.760000,311.226000,273.838000,313.147000L208.955000,378.031000C204.243000,382.742000,203.807000,389.968000,207.919000,395.211000C212.031000,400.454000,219.151000,401.753000,224.852000,398.298000L244.454000,386.415000C249.221000,383.526000,255.459000,384.838000,258.657000,389.405000C260.307000,391.761000,260.925000,394.617000,260.397000,397.445000C259.869000,400.274000,258.262000,402.714000,255.873000,404.316000L210.523000,434.726000C195.832000,444.578000,178.723000,449.783000,161.036000,449.783000C160.994000,449.783000,160.951000,449.783000,160.909000,449.783000L130.107000,449.739000C130.102000,449.739000,130.098000,449.739000,130.093000,449.739000C127.441000,449.739000,124.897000,450.793000,123.022000,452.668000L80.770000,494.920000C76.865000,498.825000,76.865000,505.157000,80.770000,509.062000C82.723000,511.015000,85.282000,511.991000,87.841000,511.991000C90.400000,511.991000,92.960000,511.014000,94.912000,509.062000L134.230000,469.744000L160.881000,469.782000L161.037000,469.782000C182.703000,469.782000,203.665000,463.405000,221.662000,451.337000L267.012000,420.926000C273.902000,416.306000,278.534000,409.270000,280.057000,401.116000C281.580000,392.962000,279.798000,384.728000,275.040000,377.934000C269.219000,369.621000,259.906000,365.047000,250.369000,364.901000L284.973000,330.297000C286.778000,335.437000,289.716000,340.152000,293.681000,344.117000C300.865000,351.300000,310.297000,354.891000,319.733000,354.890000C329.167000,354.890000,338.604000,351.298000,345.786000,344.117000Z" fill="rgb(0,0,0)" stroke="none" stroke-width="1"/><path id="e161s0e9ge2p16" d="M432.813000,249.740000C435.443000,249.740000,438.023000,248.680000,439.883000,246.810000C441.743000,244.960000,442.813000,242.380000,442.813000,239.750000C442.813000,237.110000,441.743000,234.530000,439.883000,232.670000C438.013000,230.810000,435.443000,229.740000,432.813000,229.740000C430.173000,229.740000,427.603000,230.810000,425.733000,232.670000C423.873000,234.530000,422.813000,237.110000,422.813000,239.750000C422.813000,242.380000,423.873000,244.950000,425.733000,246.810000C427.593000,248.680000,430.173000,249.740000,432.813000,249.740000Z" fill="rgb(0,0,0)" stroke="none" stroke-width="1"/></g></g></g></svg>

<svg id="Capa_1" enable-background="new 0 0 511.991 511.991" height="512" viewBox="0 0 511.991 511.991" width="512" xmlns="http://www.w3.org/2000/svg"><g id="XMLID_1741_"><g id="XMLID_1351_"><path id="XMLID_1274_" d="m63.986 114.856-43.446-43.446c-14.048-14.048-14.048-36.825 0-50.873 14.048-14.048 36.825-14.048 50.873 0 14.048-14.048 36.825-14.048 50.873 0 14.048 14.048 14.048 36.825 0 50.873l-43.446 43.446c-4.102 4.102-10.752 4.102-14.854 0z" fill="#ff7a7a"/><g id="XMLID_1842_"><path id="XMLID_1843_" d="m377.477 10.012-25.274 25.274-40.984-.058c-26.153-.037-51.723 7.723-73.445 22.289l-60.341 40.463c-12.764 8.559-16.009 25.933-7.194 38.522 8.289 11.837 24.338 15.216 36.696 7.725l26.082-15.811c3.998-2.424 8.153 2.873 4.847 6.179l-86.333 86.333c-10.483 10.483-10.483 27.48 0 37.963 10.483 10.483 27.48 10.483 37.963 0l60.313-60.313-18.87 18.736-60.313 60.313c-10.483 10.483-10.483 27.48 0 37.963 10.483 10.483 27.48 10.483 37.963 0l60.313-60.313 18.736-18.87-60.313 60.313c-10.483 10.483-10.483 27.48 0 37.963 10.483 10.483 27.48 10.483 37.963 0l60.313-60.313-.067-.067-24.385 24.385c-10.483 10.483-10.483 27.48 0 37.963 10.483 10.483 27.48 10.483 37.963 0l43.155-43.155-37.066 37.066 72.053-72.053c24.714-24.714 38.576-58.247 38.526-93.198l-.038-26.489 26.024-26.024z" fill="#f4c6af"/></g><g id="XMLID_1024_"><path id="XMLID_1025_" d="m87.841 501.991 42.253-42.253 30.801.044c19.655.028 38.873-5.804 55.198-16.751l45.349-30.41c9.593-6.433 12.031-19.49 5.406-28.952-6.229-8.896-18.292-11.436-27.579-5.805l-19.602 11.883c-3.005 1.821-6.128-2.16-3.643-4.644l64.884-64.884c7.879-7.879 7.879-20.653 0-28.531-7.879-7.879-20.653-7.879-28.531 0l-45.329 45.329 14.182-14.081 45.329-45.329c7.879-7.879 7.879-20.653 0-28.531-7.879-7.879-20.653-7.879-28.531 0l-45.328 45.327-14.081 14.182 45.329-45.329c7.879-7.879 7.879-20.653 0-28.531-7.879-7.879-20.653-7.879-28.531 0l-45.329 45.329.05.05 11.867-11.867c7.879-7.879 7.879-20.653 0-28.531-7.879-7.879-20.653-7.879-28.531 0l-25.974 25.973 21.398-21.398-47.693 47.693c-18.574 18.574-28.992 43.776-28.954 70.043l.028 19.908-42.253 42.253z" fill="#ffd0c6"/></g><path id="XMLID_1044_" d="m416.233 498.167-54.141-54.141c-17.506-17.506-17.506-45.889 0-63.396 17.506-17.506 45.889-17.506 63.396 0 17.506-17.506 45.889-17.506 63.396 0 17.506 17.506 17.506 45.889 0 63.396l-54.141 54.141c-5.112 5.111-13.399 5.111-18.51 0z" fill="#ff7a7a"/></g><g id="XMLID_496_"><g id="XMLID_497_"><path id="XMLID_504_" d="m56.916 121.927c3.872 3.873 9.021 6.005 14.498 6.005s10.625-2.133 14.497-6.005l43.447-43.446c17.925-17.925 17.925-47.091 0-65.016-8.684-8.683-20.229-13.465-32.508-13.465-9.19 0-17.97 2.679-25.445 7.667-17.848-11.856-42.215-9.924-57.937 5.798-8.683 8.683-13.465 20.228-13.465 32.508s4.782 23.824 13.465 32.508zm-29.305-94.32c5.063-5.063 11.714-7.595 18.366-7.595 6.651 0 13.302 2.532 18.365 7.595 1.875 1.875 4.419 2.929 7.071 2.929s5.196-1.054 7.071-2.929c4.906-4.905 11.428-7.607 18.366-7.607s13.46 2.702 18.365 7.607c4.906 4.905 7.607 11.428 7.607 18.366s-2.702 13.46-7.607 18.365l-43.447 43.447c-.041.041-.147.147-.355.147s-.315-.107-.355-.147l-43.447-43.447c-10.127-10.126-10.127-26.604 0-36.731z"/><path id="XMLID_501_" d="m495.955 373.559c-19.156-19.155-49.074-21.146-70.467-5.973-21.393-15.173-51.311-13.183-70.467 5.973-21.377 21.377-21.377 56.161 0 77.538l54.141 54.141c4.501 4.501 10.414 6.751 16.326 6.751s11.825-2.25 16.326-6.751l54.141-54.141c21.377-21.378 21.377-56.161 0-77.538zm-14.143 63.395-54.141 54.141c-1.204 1.205-3.163 1.205-4.367 0l-54.141-54.141c-13.58-13.579-13.58-35.674 0-49.253 6.578-6.578 15.324-10.201 24.626-10.201s18.048 3.623 24.626 10.201c3.905 3.905 10.237 3.905 14.143 0 13.58-13.58 35.675-13.579 49.253 0 13.581 13.579 13.581 35.674.001 49.253z"/><path id="XMLID_500_" d="m448.958 208.48c.849.223 1.701.329 2.54.329 4.437 0 8.491-2.976 9.667-7.47 3.078-11.756 4.63-23.883 4.613-36.043l-.032-22.338 23.089-23.09c3.905-3.905 3.905-10.237 0-14.142s-10.237-3.905-14.142 0l-26.024 26.024c-1.878 1.878-2.933 4.428-2.929 7.085l.038 26.488c.015 10.442-1.318 20.855-3.96 30.949-1.4 5.345 1.798 10.81 7.14 12.208z"/><path id="XMLID_499_" d="m409.705 280.198c3.905-3.905 3.905-10.237 0-14.143s-10.237-3.905-14.143 0l-63.918 63.919c-6.568 6.567-17.253 6.568-23.821 0-3.181-3.181-4.934-7.411-4.934-11.91 0-3.894 1.312-7.585 3.728-10.571l26.054-26.053c1.875-1.875 2.896-4.453 2.896-7.104 0-2.652-1.087-5.229-2.962-7.105-3.905-3.905-10.237-3.905-14.143 0l-24.78 24.781c-.06.06-.113.125-.173.186-1.419-2.763-3.268-5.322-5.528-7.582-2.794-2.794-6.005-4.925-9.434-6.392 3.765-6.646 4.792-14.425 3.116-21.701l13.046-13.045c3.905-3.905 3.906-10.237 0-14.142s-10.237-3.905-14.142 0l-10.012 10.012c-9.664-7.363-22.779-8.132-33.143-2.259-1.126-2.631-2.647-5.132-4.554-7.417l24.023-24.023c3.905-3.905 3.905-10.237 0-14.142s-10.237-3.905-14.142 0l-27.79 27.791c-9.372-1.648-19.377 1.133-26.601 8.357l-13.354 13.355c-1.438-3.031-3.409-5.87-5.914-8.375-2.624-2.623-5.648-4.696-8.931-6.178l84.791-84.791c5.068-5.069 5.536-12.841 1.112-18.481-4.425-5.641-12.085-7.037-18.214-3.32l-26.082 15.812c-7.827 4.744-18.07 2.588-23.32-4.909-2.709-3.869-3.724-8.558-2.856-13.201.867-4.644 3.505-8.649 7.428-11.28l60.34-40.462c20.095-13.475 43.496-20.594 67.687-20.594h.175l40.984.058h.014c2.652 0 5.196-1.053 7.071-2.929l25.273-25.273c3.905-3.905 3.905-10.237 0-14.143s-10.238-3.905-14.142 0l-22.343 22.336-36.833-.052c-.069 0-.135 0-.204 0-28.17 0-55.424 8.292-78.825 23.983l-60.34 40.462c-8.424 5.649-14.088 14.25-15.95 24.22s.316 20.036 6.134 28.344c8.919 12.739 24.558 18.297 39.018 15.012l-56.606 56.606c-3.492 3.492-6.202 7.62-8.044 12.133-3.703 1.498-7.104 3.736-10.014 6.645l-52.269 52.268c-20.303 20.303-31.924 48.416-31.883 77.129l.022 15.757-39.316 39.319c-3.906 3.905-3.906 10.237 0 14.143 3.904 3.904 10.237 3.904 14.142 0l42.253-42.253c1.878-1.878 2.933-4.428 2.929-7.085l-.028-19.908c-.034-23.438 9.452-46.385 26.025-62.958l52.269-52.269c1.921-1.922 4.477-2.98 7.194-2.98s5.273 1.059 7.194 2.98c3.678 3.678 3.946 9.494.805 13.484l-12.723 12.723c-3.905 3.905-3.854 10.287.05 14.192 3.906 3.905 10.238 3.905 14.142 0l45.279-45.379c3.966-3.966 10.421-3.967 14.389 0 3.678 3.679 3.946 9.496.803 13.486l-46.157 46.257c-3.886 3.914-3.87 10.236.038 14.129 3.908 3.894 10.229 3.889 14.129-.012l59.41-59.51c3.966-3.967 10.421-3.967 14.389 0 3.967 3.967 3.967 10.422 0 14.389l-59.51 59.41c-3.9 3.9-3.906 10.223-.012 14.13s10.215 3.925 14.129.038l46.257-46.157c3.989-3.143 9.807-2.876 13.485.803 1.922 1.921 2.98 4.477 2.98 7.194s-1.058 5.273-2.98 7.194l-64.883 64.884c-4.712 4.711-5.148 11.937-1.036 17.18s11.232 6.542 16.933 3.087l19.602-11.883c4.767-2.889 11.005-1.577 14.203 2.99 1.65 2.356 2.268 5.212 1.74 8.04-.528 2.829-2.135 5.269-4.524 6.871l-45.35 30.41c-14.691 9.852-31.8 15.057-49.487 15.057-.042 0-.085 0-.127 0l-30.802-.044c-.005 0-.009 0-.014 0-2.652 0-5.196 1.054-7.071 2.929l-42.252 42.252c-3.905 3.905-3.905 10.237 0 14.142 1.953 1.953 4.512 2.929 7.071 2.929s5.119-.977 7.071-2.929l39.318-39.318 26.651.038h.156c21.666 0 42.628-6.377 60.625-18.445l45.35-30.411c6.89-4.62 11.522-11.656 13.045-19.81s-.259-16.388-5.017-23.182c-5.821-8.313-15.134-12.887-24.671-13.033l34.604-34.604c1.805 5.14 4.743 9.855 8.708 13.82 7.184 7.183 16.616 10.774 26.052 10.773 9.434 0 18.871-3.592 26.053-10.773z"/><path id="XMLID_498_" d="m432.813 249.74c2.63 0 5.21-1.06 7.07-2.93 1.86-1.85 2.93-4.43 2.93-7.06 0-2.64-1.07-5.22-2.93-7.08-1.87-1.86-4.44-2.93-7.07-2.93-2.64 0-5.21 1.07-7.08 2.93-1.86 1.86-2.92 4.44-2.92 7.08 0 2.63 1.06 5.2 2.92 7.06 1.86 1.87 4.44 2.93 7.08 2.93z"/></g></g></g></svg>
